public/assets/okkot_logo.svg

<svg xmlns="http://www.w3.org/2000/svg" xmlns:xlink="http://www.w3.org/1999/xlink" width="320" height="210" version="1.1" viewBox="0 0 320 210"><title>Artboard</title><g id="Artboard--Artboard" fill="none" fill-rule="evenodd" stroke="none" stroke-width="1"><rect width="320" height="210" x="0" y="0" fill="#FF3641"/><path id="Artboard--OKKOT" fill="#FFF" fill-rule="nonzero" d="M110.916,117.48 C113.388,117.48 115.506,116.994 117.27,116.022 C119.034,115.05 120.39,113.652 121.338,111.828 C122.286,110.004 122.76,107.808 122.76,105.24 C122.76,102.672 122.286,100.476 121.338,98.652 C120.39,96.828 119.034,95.43 117.27,94.458 C115.506,93.486 113.388,93 110.916,93 C108.468,93 106.35,93.486 104.562,94.458 C102.774,95.43 101.4,96.828 100.44,98.652 C99.48,100.476 99,102.672 99,105.24 C99,107.808 99.48,110.004 100.44,111.828 C101.4,113.652 102.774,115.05 104.562,116.022 C106.35,116.994 108.468,117.48 110.916,117.48 Z M110.916,111.864 C109.932,111.864 109.122,111.618 108.486,111.126 C107.85,110.634 107.37,109.902 107.046,108.93 C106.722,107.958 106.56,106.728 106.56,105.24 C106.56,103.728 106.722,102.492 107.046,101.532 C107.37,100.572 107.85,99.846 108.486,99.354 C109.122,98.862 109.932,98.616 110.916,98.616 C111.876,98.616 112.68,98.862 113.328,99.354 C113.976,99.846 114.456,100.572 114.768,101.532 C115.08,102.492 115.236,103.728 115.236,105.24 C115.236,106.728 115.08,107.958 114.768,108.93 C114.456,109.902 113.976,110.634 113.328,111.126 C112.68,111.618 111.876,111.864 110.916,111.864 Z M133.485162,117.12 L133.485,110.711 L135.899,107.593 L140.973162,117.12 L149.289162,117.12 L141.093,102.904 L148.713162,93.36 L140.757162,93.36 L133.485,103.073 L133.485162,93.36 L126.141162,93.36 L126.141162,117.12 L133.485162,117.12 Z M158.754324,117.12 L158.754,110.711 L161.168,107.593 L166.242324,117.12 L174.558324,117.12 L166.362,102.904 L173.982324,93.36 L166.026324,93.36 L158.754,103.073 L158.754324,93.36 L151.410324,93.36 L151.410324,117.12 L158.754324,117.12 Z M185.283486,117.48 C187.755486,117.48 189.873486,116.994 191.637486,116.022 C193.401486,115.05 194.757486,113.652 195.705486,111.828 C196.653486,110.004 197.127486,107.808 197.127486,105.24 C197.127486,102.672 196.653486,100.476 195.705486,98.652 C194.757486,96.828 193.401486,95.43 191.637486,94.458 C189.873486,93.486 187.755486,93 185.283486,93 C182.835486,93 180.717486,93.486 178.929486,94.458 C177.141486,95.43 175.767486,96.828 174.807486,98.652 C173.847486,100.476 173.367486,102.672 173.367486,105.24 C173.367486,107.808 173.847486,110.004 174.807486,111.828 C175.767486,113.652 177.141486,115.05 178.929486,116.022 C180.717486,116.994 182.835486,117.48 185.283486,117.48 Z M185.283486,111.864 C184.299486,111.864 183.489486,111.618 182.853486,111.126 C182.217486,110.634 181.737486,109.902 181.413486,108.93 C181.089486,107.958 180.927486,106.728 180.927486,105.24 C180.927486,103.728 181.089486,102.492 181.413486,101.532 C181.737486,100.572 182.217486,99.846 182.853486,99.354 C183.489486,98.862 184.299486,98.616 185.283486,98.616 C186.243486,98.616 187.047486,98.862 187.695486,99.354 C188.343486,99.846 188.823486,100.572 189.135486,101.532 C189.447486,102.492 189.603486,103.728 189.603486,105.24 C189.603486,106.728 189.447486,107.958 189.135486,108.93 C188.823486,109.902 188.343486,110.634 187.695486,111.126 C187.047486,111.618 186.243486,111.864 185.283486,111.864 Z M213.036648,117.12 L213.036648,98.868 L220.596648,98.868 L220.596648,93.36 L198.060648,93.36 L198.060648,98.868 L205.692648,98.868 L205.692648,117.12 L213.036648,117.12 Z"/></g></svg>

<svg xmlns="http://www.w3.org/2000/svg" width="320" height="210"><g fill="none" fill-rule="evenodd"><path fill="#FF3641" d="M0 0h320v210H0z"/><path fill="#FFF" fill-rule="nonzero" d="M110.916 117.48c2.472 0 4.59-.486 6.354-1.458 1.764-.972 3.12-2.37 4.068-4.194.948-1.824 1.422-4.02 1.422-6.588 0-2.568-.474-4.764-1.422-6.588-.948-1.824-2.304-3.222-4.068-4.194-1.764-.972-3.882-1.458-6.354-1.458-2.448 0-4.566.486-6.354 1.458-1.788.972-3.162 2.37-4.122 4.194-.96 1.824-1.44 4.02-1.44 6.588 0 2.568.48 4.764 1.44 6.588.96 1.824 2.334 3.222 4.122 4.194 1.788.972 3.906 1.458 6.354 1.458zm0-5.616c-.984 0-1.794-.246-2.43-.738-.636-.492-1.116-1.224-1.44-2.196-.324-.972-.486-2.202-.486-3.69 0-1.512.162-2.748.486-3.708.324-.96.804-1.686 1.44-2.178.636-.492 1.446-.738 2.43-.738.96 0 1.764.246 2.412.738.648.492 1.128 1.218 1.44 2.178.312.96.468 2.196.468 3.708 0 1.488-.156 2.718-.468 3.69-.312.972-.792 1.704-1.44 2.196-.648.492-1.452.738-2.412.738zm22.57 5.256-.001-6.409 2.414-3.118 5.074 9.527h8.316l-8.196-14.216 7.62-9.544h-7.956l-7.272 9.713V93.36h-7.344v23.76h7.344zm25.268 0v-6.409l2.414-3.118 5.074 9.527h8.316l-8.196-14.216 7.62-9.544h-7.956l-7.272 9.713V93.36h-7.344v23.76h7.344zm26.53.36c2.471 0 4.59-.486 6.353-1.458 1.764-.972 3.12-2.37 4.068-4.194.948-1.824 1.422-4.02 1.422-6.588 0-2.568-.474-4.764-1.422-6.588-.948-1.824-2.304-3.222-4.068-4.194-1.764-.972-3.882-1.458-6.354-1.458-2.448 0-4.566.486-6.354 1.458-1.788.972-3.162 2.37-4.122 4.194-.96 1.824-1.44 4.02-1.44 6.588 0 2.568.48 4.764 1.44 6.588.96 1.824 2.334 3.222 4.122 4.194 1.788.972 3.906 1.458 6.354 1.458zm0-5.616c-.985 0-1.795-.246-2.43-.738-.637-.492-1.117-1.224-1.44-2.196-.325-.972-.487-2.202-.487-3.69 0-1.512.162-2.748.486-3.708.324-.96.804-1.686 1.44-2.178.636-.492 1.446-.738 2.43-.738.96 0 1.764.246 2.412.738.648.492 1.128 1.218 1.44 2.178.312.96.468 2.196.468 3.708 0 1.488-.156 2.718-.468 3.69-.312.972-.792 1.704-1.44 2.196-.648.492-1.452.738-2.412.738zm27.753 5.256V98.868h7.56V93.36H198.06v5.508h7.632v18.252h7.344z"/></g></svg>
